static/img/general/ic-twitter.svg

<svg width="29" height="23" viewBox="0 0 29 23" fill="none" xmlns="http://www.w3.org/2000/svg">
<path d="M29 2.72285C27.9216 3.18462 26.7724 3.49069 25.5744 3.63931C26.8069 2.921 27.7476 1.79223 28.1898 0.431692C27.0407 1.10046 25.7719 1.57285 24.4198 1.83646C23.3287 0.702385 21.7736 0 20.0771 0C16.7856 0 14.1357 2.60785 14.1357 5.80485C14.1357 6.26485 14.1756 6.70715 14.2734 7.12823C9.33075 6.89292 4.95719 4.58054 2.01912 1.058C1.50619 1.92669 1.20531 2.921 1.20531 3.99138C1.20531 6.00123 2.26562 7.78285 3.84612 8.81431C2.89094 8.79661 1.95387 8.52592 1.16 8.09954C1.16 8.11723 1.16 8.14023 1.16 8.16323C1.16 10.9834 3.22081 13.3258 5.92325 13.8655C5.43931 13.9946 4.91187 14.0565 4.3645 14.0565C3.98387 14.0565 3.59962 14.0353 3.23894 13.9575C4.00925 16.2557 6.19513 17.9453 8.79425 18.0002C6.7715 19.5447 4.20319 20.4753 1.42281 20.4753C0.93525 20.4753 0.467625 20.4541 0 20.3957C2.63356 22.0535 5.75469 23 9.1205 23C20.0607 23 26.042 14.1538 26.042 6.486C26.042 6.22946 26.0329 5.98177 26.0202 5.73585C27.2002 4.91846 28.1916 3.89762 29 2.72285Z" fill="white"/>
</svg>

<svg width="29" height="23" viewBox="0 0 29 23" fill="none" xmlns="http://www.w3.org/2000/svg"><path d="M29 2.723a12.633 12.633 0 0 1-3.426.916A5.798 5.798 0 0 0 28.19.432a12.059 12.059 0 0 1-3.77 1.404A6.026 6.026 0 0 0 20.077 0c-3.291 0-5.941 2.608-5.941 5.805 0 .46.04.902.137 1.323A16.967 16.967 0 0 1 2.02 1.058a5.737 5.737 0 0 0-.814 2.933c0 2.01 1.06 3.792 2.641 4.823A5.982 5.982 0 0 1 1.16 8.1v.063c0 2.82 2.06 5.163 4.763 5.703a6.073 6.073 0 0 1-1.559.19c-.38 0-.764-.02-1.125-.098.77 2.298 2.956 3.987 5.555 4.042a12.133 12.133 0 0 1-7.371 2.475c-.488 0-.955-.02-1.423-.08C2.634 22.055 5.755 23 9.12 23c10.94 0 16.922-8.846 16.922-16.514 0-.257-.01-.504-.022-.75A11.708 11.708 0 0 0 29 2.723z" fill="#fff"/></svg>
